icons/OpenLotus/actions/22/kstars_grid.svg

<?xml version="1.0" encoding="UTF-8" standalone="no"?>
<!-- Created with Inkscape (http://www.inkscape.org/) -->

<svg
   xmlns:dc="http://purl.org/dc/elements/1.1/"
   xmlns:cc="http://creativecommons.org/ns#"
   xmlns:rdf="http://www.w3.org/1999/02/22-rdf-syntax-ns#"
   xmlns:svg="http://www.w3.org/2000/svg"
   xmlns="http://www.w3.org/2000/svg"
   xmlns:sodipodi="http://sodipodi.sourceforge.net/DTD/sodipodi-0.dtd"
   xmlns:inkscape="http://www.inkscape.org/namespaces/inkscape"
   width="22.000002"
   height="22"
   viewBox="0 0 22.000002 22"
   version="1.1"
   id="main"
   inkscape:version="0.92+devel (342812bdbc, 2017-09-26, custom)"
   sodipodi:docname="kstars_grid.svg">
  <defs
     id="ol-defs" />
  <sodipodi:namedview
     id="base"
     pagecolor="#002466"
     bordercolor="#ffffff"
     borderopacity="0.30"
     inkscape:pageopacity="1"
     inkscape:pageshadow="0"
     inkscape:zoom="13.140625"
     inkscape:document-units="px"
     inkscape:current-layer="main"
     inkscape:document-rotation="0"
     showgrid="false"
     inkscape:showpageshadow="false"
     borderlayer="true"
     inkscape:window-width="1920"
     inkscape:window-height="1017"
     inkscape:window-x="0"
     inkscape:window-y="34"
     inkscape:window-maximized="1"
     units="px"
     inkscape:cx="6.5947884"
     inkscape:cy="8.0269054" />
  <metadata
     id="metadata5">
    <rdf:RDF>
      <cc:Work
         rdf:about="">
        <dc:format>image/svg+xml</dc:format>
        <dc:type
           rdf:resource="http://purl.org/dc/dcmitype/StillImage" />
        <dc:title></dc:title>
      </cc:Work>
    </rdf:RDF>
  </metadata>
  <g
     id="g828"
     inkscape:label="#kstars_grid"
     style="stroke:none">
    <path
       style="fill:none;stroke:none;stroke-width:1"
       d="M 0,0 H 22.000001 V 22 H 0 Z"
       id="boundary"
       inkscape:label="#boundary"
       inkscape:connector-curvature="0" />
    <path
       inkscape:label="#"
       inkscape:connector-curvature="0"
       id="path822"
       d="M 6.5253918,3.0000001 9.4277356,4.279297 C 8.9455834,5.2084418 8.3338036,6.0556229 7.6269543,6.8144533 L 3.8183605,3.0195314 H 3.0117199 v 0.9492187 l 3.7226563,3.7050778 c -0.7208313,0.623869 -1.5137908,1.162834 -2.3750001,1.59375 L 3.5683605,7.4824219 v -0.0039 L 3.029298,6.2226564 3.0156262,9.2460939 3.2402356,9.7519529 c -0.081462,0.03041 -0.1579059,0.071 -0.2402344,0.09961 v 1.3085931 c 0.2534343,-0.07884 0.4938265,-0.185321 0.7402343,-0.279296 l 1.9355469,4.365234 c -0.8615948,0.339004 -1.7534659,0.618754 -2.6757812,0.818359 v 1.269532 C 4.0991779,17.11219 5.157583,16.7826 6.1777356,16.376953 l 1.1347656,2.5625 H 8.6445324 L 7.294923,15.892578 c 1.6841497,-0.801264 3.227091,-1.847408 4.587891,-3.091796 l 3.423828,3.408203 C 14.188297,17.249941 12.9746,18.189861 11.669923,19 h 2.220703 c 0.806228,-0.590038 1.56484,-1.238733 2.292969,-1.919922 l 1.867188,1.859375 0.888672,0.0098 0.0059,-0.855469 -1.884766,-1.876953 c 0.685699,-0.708001 1.341002,-1.445641 1.939453,-2.230469 v -2.148437 c -0.823057,1.260444 -1.769656,2.430577 -2.8125,3.507812 L 12.76762,11.937534 c 1.332993,-1.390479 2.453589,-2.9836521 3.308594,-4.7324221 l 2.859375,1.259766 0.0039,-1.345703 -2.367188,-1.0253908 c 0.405262,-0.9880338 0.7385,-2.0121089 0.970703,-3.0761718 h -1.269531 c -0.208635,0.8916105 -0.490335,1.752914 -0.830078,2.5859375 l -4.404297,-1.90625 c 0.09074,-0.2269615 0.195599,-0.4465417 0.273437,-0.6796875 H 9.9960949 C 9.9715809,3.0832593 9.9377829,3.143949 9.9121109,3.2090185 L 9.4316418,3.0000001 Z m 4.0292972,1.7753907 4.392578,1.9335937 C 14.15549,8.3183459 13.1195,9.7839699 11.892579,11.066406 L 8.5000012,7.6855469 C 9.312957,6.818509 10.007586,5.8427861 10.554689,4.7753908 Z M 7.6093762,8.5449219 11.007814,11.927735 C 9.7544818,13.065458 8.3384673,14.024464 6.7929699,14.761719 L 4.8593761,10.394532 C 5.859109,9.8983139 6.7792227,9.2745429 7.6093762,8.5449219 Z"
       style="opacity:0.6;fill:#d0d0d0;fill-opacity:1;stroke:none" />
  </g>
</svg>

<svg xmlns="http://www.w3.org/2000/svg" viewBox="0 0 22 22">
  <defs id="defs3051">
    <style type="text/css" id="current-color-scheme">
      .ColorScheme-Text {
        color:#f2f2f2;
      }
      </style>
  </defs>
 <path 
     style="fill:currentColor;fill-opacity:1;stroke:none" 
     d="M 6.5253906 3 L 9.4277344 4.2792969 C 8.9455822 5.2084417 8.3338024 6.0556227 7.6269531 6.8144531 L 3.8183594 3.0195312 L 3.0117188 3.0195312 L 3.0117188 3.96875 L 6.734375 7.6738281 C 6.0135437 8.2976972 5.2205843 8.8366627 4.359375 9.2675781 L 3.5683594 7.4824219 L 3.5683594 7.4785156 L 3.0292969 6.2226562 L 3.015625 9.2460938 L 3.2402344 9.7519531 C 3.158772 9.782362 3.0823285 9.822956 3 9.8515625 L 3 11.160156 C 3.2534343 11.081317 3.4938266 10.974834 3.7402344 10.880859 L 5.6757812 15.246094 C 4.8141864 15.585098 3.9223154 15.864848 3 16.064453 L 3 17.333984 C 4.0991768 17.112189 5.1575819 16.7826 6.1777344 16.376953 L 7.3125 18.939453 L 8.6445312 18.939453 L 7.2949219 15.892578 C 8.9790715 15.091314 10.522012 14.04517 11.882812 12.800781 L 15.306641 16.208984 C 14.188296 17.24994 12.974599 18.189861 11.669922 19 L 13.890625 19 C 14.696853 18.409962 15.455465 17.761267 16.183594 17.080078 L 18.050781 18.939453 L 18.939453 18.949219 L 18.945312 18.09375 L 17.060547 16.216797 C 17.746287 15.50883 18.401549 14.771156 19 13.986328 L 19 11.837891 C 18.176943 13.098335 17.230344 14.268468 16.1875 15.345703 L 12.767578 11.9375 C 14.100571 10.547021 15.221167 8.9538482 16.076172 7.2050781 L 18.935547 8.4648438 L 18.939453 7.1191406 L 16.572266 6.09375 C 16.977528 5.1057161 17.310766 4.081641 17.542969 3.0175781 L 16.273438 3.0175781 C 16.064803 3.9091886 15.783102 4.7704921 15.443359 5.6035156 L 11.039062 3.6972656 C 11.129806 3.4703041 11.234662 3.2507239 11.3125 3.0175781 L 9.9960938 3.0175781 C 9.9715794 3.0832252 9.9377822 3.1439149 9.9121094 3.2089844 L 9.4316406 3 L 6.5253906 3 z M 10.554688 4.7753906 L 14.947266 6.7089844 C 14.155489 8.3183457 13.119499 9.783968 11.892578 11.066406 L 8.5 7.6855469 C 9.3129558 6.8185093 10.007585 5.8427859 10.554688 4.7753906 z M 7.609375 8.5449219 L 11.007812 11.927734 C 9.7544801 13.065457 8.3384662 14.024464 6.7929688 14.761719 L 4.859375 10.394531 C 5.8591078 9.898314 6.7792215 9.2745429 7.609375 8.5449219 z "
     class="ColorScheme-Text"
     />
</svg>
